X:1
T:Title
%%score { 1 | ( 2 3 ) }
L:1/8
M:6/4
K:Eb
V:1 treble nm="Grand Piano"
V:2 bass 
V:3 bass 
V:1
 z6 z4[Q:1/4=111] G2 | G2 F2 G2 A4 G2 | [EG]4 [DF]2 [DF]4 [EG]2 | [FA]2 [=EG]2 [FA]2 [GB]4 [FA]2 | %4
[M:5/4] G2- G2- G6 |[M:1/4] B2 |[M:6/4] B2 =A2 B2 [=Ec]4 [EG]2 | [GB]4 A2 A4 C2 | %8
 E2 D2 E2 [EG]4 [DF]2 | E12 | B2 =A2 B2 [Ge]4 G2 | B4 A2 A6 | A2 G2 A2 [Fd]4 [Dc]2 | B12 | %14
 B2 =A2 B2 [Ge]4 [EGB]2 | [EBd]4 [EAc]2 [EAc]6 | [EGB]2 [EG]2 [CEA]2 [B,EG]4 [A,DF]2 | %17
[M:5/4] [G,E]2- [G,E]2- [G,E]6 |] %18
V:2
 z6 z4 [E,B,E]2 | .B,6 z6 | [B,,B,]4 [B,,A,]2 [B,,A,]4 [B,,B,]2 | %3
 [B,,B,]4 [B,,B,]2 [B,,B,]4 [D,B,]2 |[M:5/4] [E,B,E]2- [E,B,E]2- [E,B,E]6 |[M:1/4] [E,G,E]2 | %6
[M:6/4] .[E,E]6 z6 | [F,C]4 [F,CF]2 [F,C]4 [A,,A,]2 | .G,6 z6 | [E,G,]12 | %10
 [E,E]2- [E,_G,E]2 [E,=G,E]2 [E,B,]4 [E,B,E]2 | [G,B,E]4 [F,B,D]2 [F,B,D]6 | %12
 [F,B,D]2 [=E,B,D]2 [F,B,D]2 [B,,B,]4 [B,,A,]2 | [E,G,E]12 | %14
 [E,E]2- [E,_G,E]2 [E,=G,E]2 [E,B,]4 E,2 | A,4 A,2 A,4 A,,2 | z2 B,2 B,,2 B,,4 B,,2 | %17
[M:5/4] E,2- E,2- E,6 |] %18
V:3
 x12 | [E,E]2- [E,A,E]2 [E,B,E]2 [E,CE]4 [E,B,E]2 | x12 | x12 |[M:5/4] x10 |[M:1/4] x2 | %6
[M:6/4] G,2 _G,2 [E,=G,E]2 [C,G,]4 [C,C]2 | x12 | %8
 [B,,B,]2- [B,,F,B,]2 [B,,G,B,]2 [B,,B,]4 [B,,A,]2 | x12 | .G,6 z6 | x12 | x12 | x12 | .G,6 z6 | %15
 x12 | .B,,6 z6 |[M:5/4] x10 |] %18

